src/files/icons/svg/play.svg

<?xml version="1.0" standalone="no"?>
<!-- Generator: Adobe Fireworks 10, Export SVG Extension by Aaron Beall (http://fireworks.abeall.com) . Version: 0.6.1  -->
<!DOCTYPE svg PUBLIC "-//W3C//DTD SVG 1.1//EN" "http://www.w3.org/Graphics/SVG/1.1/DTD/svg11.dtd">
<svg id="Icons.fw-play" viewBox="0 0 16 16" style="background-color:#ffffff00" version="1.1"
	xmlns="http://www.w3.org/2000/svg" xmlns:xlink="http://www.w3.org/1999/xlink" xml:space="preserve"
	x="0px" y="0px" width="16px" height="16px"
>
	<path id="base" d="M 8 0 C 3.582 0 0 3.582 0 8 C 0 12.418 3.582 16 8 16 C 12.418 16 16 12.418 16 8 C 16 3.582 12.418 0 8 0 ZM 8 14.5 C 4.4102 14.5 1.5 11.5898 1.5 8 C 1.5 4.4102 4.4102 1.5 8 1.5 C 11.5898 1.5 14.5 4.4102 14.5 8 C 14.5 11.5898 11.5898 14.5 8 14.5 ZM 6 4.5 L 12 8 L 6 11.5 L 6 4.5 Z" fill="#ffffff"/>
</svg>

<?xml version="1.0" encoding="utf-8"?>
<!-- Generated by IcoMoon.io -->
<!DOCTYPE svg PUBLIC "-//W3C//DTD SVG 1.1//EN" "http://www.w3.org/Graphics/SVG/1.1/DTD/svg11.dtd">
<svg version="1.1" xmlns="http://www.w3.org/2000/svg" xmlns:xlink="http://www.w3.org/1999/xlink" width="16" height="16" viewBox="0 0 16 16">
<g id="icomoon-ignore">
	<line stroke-width="1" x1="" y1="" x2="" y2="" stroke="#449FDB" opacity=""></line>
</g>
	<path d="M8 0c-4.418 0-8 3.582-8 8s3.582 8 8 8 8-3.582 8-8-3.582-8-8-8zM8 14.5c-3.59 0-6.5-2.91-6.5-6.5s2.91-6.5 6.5-6.5 6.5 2.91 6.5 6.5-2.91 6.5-6.5 6.5zM6 4.5l6 3.5-6 3.5z" fill="#ffffff"></path>
</svg>
